X: 62
T:Hanter-dro 3
G:Kazimodal
R:Hanter-dro
C:Traditionnel
Q:C2=116
P:C5
M:3/4
S:Tonio Breizh-Izel 1927 (Karnag)
K:G
P:C
{Bc}BA/2B/2 dc {Bc}BA | {GA}GF/2G/2 (Ac) B>A |\
{Bc}BA/2B/2 dc {Bc}BA | {GA}GF/2G/2 (Ac) B2 |
|:{Bc}BA/2B/2 dc {Bc}BA | (G/2F/2)G/2A/2 (Bc/2B/2) A2 |\
{Bc}BA/2B/2 dc {Bc}BG |1 (AB/2)A/2 GF EG/2A/2 :|2 {GA}GB/2A/2 GF E2 ||
